!!!SOCIAL_FUNCTION:	dance songs
!!!PDT:	1943
!!!OTL: No_39_Dance_Song_of_the_Fraser_River_Indians_(c).krn
!!!REG: British Columbia
**kern	**kern
*staff2	*staff1
=1-	=1-
*clefF4	*clefF4
*k[b-]	*k[b-]
*M2/4	*M2/4
8GG/L	2d\
8GG/J	.
8GG/L	.
8GG/J	.
=2	=2
8GG/L	8c\L
8GG/J	8B-\J
4r	8G\
.	8r
=3	=3
2r	4c\
.	12c\L
.	12B-\
.	12c\J
=4	=4
2r	8G\L
.	8F\J
.	8F\
.	8r
=5	=5
2r	2F\
=6	=6
2r	8F\L
.	8F\J
.	8F\
.	8r
=7	=7
2r	(4c\
.	12c\L)
.	12B-\
.	12c\J
=8	=8
2r	8G\L
.	8F\J
.	8F\
.	8r
=9	=9
2r	4G\
.	8A\L
.	8B-\J
=10	=10
2r	8G\L
.	8F\J
.	8F\
.	8r
=11	=11
2r	8F\L
.	8F\J
.	8F\
.	8r
=12	=12
2r	8F\L
.	8F\J
.	8F\
.	8r
=13	=13
2r	4.C/
.	8F\
=14	=14
2r	8F\L
.	8F\J
.	8F\
.	8r
==	==
*-	*-
